X: 1
T: Mom's Jig
C: Jerry Holland
H: \251 fiddlesticksmusic.com, SOCAN
D: Master Cape Breton Fiddler" 1982 Odyssey Records. 2000
F: http://www.jerryholland.com/tunes/momsjig.jpg
R: jig
Z: 2010 John Chambers <jc:trillian.mit.edu>
M: 6/8
L: 1/8
P: AABBCBB
K: A
"^A"\
|: EAA AGA | BAA A2G | EAA ABc | Bdc BAG || EAA AGA | TBAA Aaf | gag Tgfe | dBG GAB "^B":: !Segno!AaA g2A |
| Tfed eBA | Aaf g2e | dBG GAB "^C":| E3 A2B | {B}c2uA uAGE | E3 A2c | Bdc BAG || E3 A2B | Tc2uA uAEF | GAG TGFE |
| DB,G, G,A,B, || A,2uA uABc | (B2A) A2B, | A,2uA uABc | Bdc BAB, || A,2uA uABc | B2A Aaf | gag Tgfe | dBG GAB !D.S.!y |]
